images/EI.svg

<?xml version="1.0" encoding="UTF-8" standalone="no"?>
<!-- Created with Inkscape (http://www.inkscape.org/) -->

<svg
   version="1.0"
   viewBox="0 0 299.99991 54.426086"
   id="svg1340"
   sodipodi:docname="EI.svg"
   width="299.99991"
   height="54.426086"
   inkscape:version="1.4.2 (f4327f4, 2025-05-13)"
   xmlns:inkscape="http://www.inkscape.org/namespaces/inkscape"
   xmlns:sodipodi="http://sodipodi.sourceforge.net/DTD/sodipodi-0.dtd"
   xmlns="http://www.w3.org/2000/svg"
   xmlns:svg="http://www.w3.org/2000/svg">
  <sodipodi:namedview
     id="namedview1"
     pagecolor="#ffffff"
     bordercolor="#000000"
     borderopacity="0.25"
     inkscape:showpageshadow="2"
     inkscape:pageopacity="0.0"
     inkscape:pagecheckerboard="0"
     inkscape:deskcolor="#d1d1d1"
     showgrid="false"
     inkscape:zoom="3.2076677"
     inkscape:cx="150.26494"
     inkscape:cy="27.278386"
     inkscape:window-width="1920"
     inkscape:window-height="991"
     inkscape:window-x="-9"
     inkscape:window-y="-9"
     inkscape:window-maximized="1"
     inkscape:current-layer="svg1340" />
  <defs
     id="defs1343" />
  <g
     transform="matrix(0.715993,0,0,0.715993,-50.003953,-27.348135)"
     id="g1362">
    <path
       d="m 422.97681,107.17065 c 0.33781,-0.79232 0.97366,-2.5857 1.41302,-3.98528 0.68759,-2.19035 1.17992,-2.8539 3.53553,-4.765108 3.68493,-2.989753 8.61878,-8.695321 11.49271,-13.290316 1.21686,-1.945583 1.22019,-1.968916 0.17478,-1.227669 -5.87007,4.162188 -13.11771,7.743296 -17.59884,8.695702 -2.48185,0.527486 -8.41798,0.677161 -9.5548,0.24092 -0.37024,-0.142073 -0.58571,-0.491139 -0.47882,-0.775702 0.10688,-0.284562 -0.39028,-0.849082 -1.10479,-1.254482 -1.95059,-1.106726 -2.84593,-3.180092 -2.56185,-5.932534 0.43782,-4.242055 3.66229,-8.845253 7.2316,-10.323713 1.12233,-0.464885 1.33285,-0.766669 1.16119,-1.664646 -0.34309,-1.794732 1.12992,-4.940909 2.93094,-6.260153 0.89246,-0.653722 1.95683,-1.593126 2.36527,-2.087566 0.59427,-0.71939 1.39376,-0.931861 4.00205,-1.063574 1.79269,-0.09053 4.07459,0.0549 5.07088,0.323178 3.64834,0.982394 7.15787,4.80709 10.1621,11.074683 0.94783,1.977419 1.86063,3.595308 2.02844,3.595308 0.16781,0 0.65764,-0.923083 1.08851,-2.051297 l 0.7834,-2.051297 -1.14778,-0.836097 c -0.63127,-0.459853 -1.75943,-1.789278 -2.50701,-2.954279 -4.05014,-6.311598 -4.5261,-14.912017 -1.19367,-21.569236 2.05383,-4.102954 5.77899,-8.349222 6.98798,-7.965505 0.56525,0.179404 1.21685,-0.04344 1.84067,-0.629482 2.98692,-2.806059 9.60452,-2.993249 10.63767,-0.300904 0.22593,0.588768 0.51777,0.547808 2.14684,-0.301312 2.54134,-1.324622 6.83139,-1.590801 9.45994,-0.586947 2.34685,0.896266 3.60575,2.364318 4.26183,4.96985 0.27787,1.103514 0.74326,1.918672 1.09539,1.918672 0.78009,0 0.76928,0.540578 -0.0757,3.785379 -1.76253,6.76857 -6.11001,11.170803 -18.37216,18.603548 -7.95844,4.824033 -9.60515,6.100617 -10.43675,8.090931 -0.36099,0.863959 -0.60213,1.625045 -0.53587,1.691304 0.0663,0.06626 1.31554,-0.78195 2.77618,-1.884908 6.93687,-5.238156 16.6999,-11.14201 20.81977,-12.590026 1.4059,-0.494138 4.25242,-1.117393 6.32558,-1.385012 3.33611,-0.430647 3.81559,-0.404036 4.17126,0.2315 0.22102,0.394944 1.19267,0.931025 2.15923,1.191291 0.96655,0.260267 2.55568,1.232623 3.53138,2.160791 1.62494,1.545765 1.77402,1.880787 1.77402,3.986738 0,2.689646 -0.75345,4.704267 -2.35056,6.285076 l -1.1449,1.133212 1.30447,2.58613 c 2.05413,4.072325 1.68907,7.457677 -1.16983,10.848534 -0.70338,0.834256 -1.28214,1.830133 -1.28613,2.213059 -0.0103,0.989875 -3.83295,2.933934 -7.9859,4.06136 -2.91796,0.792151 -4.23298,0.914495 -7.42411,0.690711 -8.39965,-0.589045 -15.16057,-4.478209 -21.13915,-12.160118 l -2.41104,-3.097948 -1.85092,3.247951 c -4.04884,7.104792 -9.24543,13.439162 -15.66574,19.095693 -4.63976,4.0878 -5.73373,4.61295 -4.73635,2.27359 z"
       style="fill:#5fba45"
       id="path1353" />
    <path
       d="m 296.463,113.92693 c -7.82273,-1.56867 -11.72424,-4.19938 -12.27075,-8.27392 -0.50288,-3.74926 2.10404,-6.114931 6.65119,-6.035686 1.4194,0.02473 2.6864,0.150659 2.81558,0.279829 0.12917,0.129177 -0.0847,0.691067 -0.47524,1.248667 -1.64631,2.35044 -0.36586,5.57883 2.82628,7.12586 2.76878,1.34187 9.04696,1.62552 12.66947,0.57243 3.47047,-1.00889 5.95705,-3.40929 5.95705,-5.75058 0,-3.785693 -2.15299,-4.907893 -10.19494,-5.313909 -8.65885,-0.437159 -9.63602,-0.618629 -11.32723,-2.103525 -2.43902,-2.14149 -2.46997,-5.57318 -0.0777,-8.614471 0.73151,-0.929964 0.81488,-1.26212 0.35525,-1.415327 -1.17714,-0.392381 -4.10103,-3.377985 -5.04521,-5.151703 -0.76796,-1.442668 -0.95974,-2.556695 -0.95901,-5.570961 7.6e-4,-3.217492 0.17196,-4.09134 1.1723,-5.983983 2.49833,-4.726804 5.81751,-6.510394 12.62829,-6.785917 4.87557,-0.197236 7.8994,0.46119 10.1124,2.201928 1.25471,0.986961 2.16087,0.650397 2.68365,-0.996764 0.25364,-0.799142 0.81073,-0.846488 9.96004,-0.846488 h 9.69138 l 0.14124,12.779098 0.14125,12.779096 1.23095,1.612932 c 3.24465,4.251522 10.23754,2.653653 13.15073,-3.004935 1.10867,-2.153471 1.13235,-2.394431 1.13235,-11.520615 0,-8.828833 -0.0519,-9.408933 -0.98238,-10.983358 l -0.98238,-1.662218 h 5.30415 5.30414 v 15.631409 c 0,14.789609 0.0478,15.720571 0.88738,17.287062 l 0.88738,1.655653 h -4.87671 -4.87669 v -2.482396 -2.482399 l -2.41216,2.20457 c -1.9017,1.73805 -3.02631,2.370818 -5.31445,2.990187 -5.02478,1.360146 -11.34798,0.103084 -14.13904,-2.810863 -2.42655,-2.533392 -2.68487,-3.872616 -2.94135,-15.249276 -0.22515,-9.987328 -0.28476,-10.564031 -1.18476,-11.462746 -1.40148,-1.399475 -4.41283,-1.609154 -6.9557,-0.484322 l -2.05238,0.907863 0.86801,1.912652 c 1.27319,2.805476 1.19736,7.44446 -0.16894,10.334555 -2.33604,4.941378 -6.29089,6.833296 -14.67924,7.02224 -2.98541,0.06724 -3.10281,0.111324 -3.10281,1.164944 0,1.565259 1.61593,2.214521 5.54073,2.22621 5.16051,0.01536 10.41158,0.75606 12.34209,1.740931 5.02065,2.561349 6.80547,9.063886 3.98969,14.535476 -2.35745,4.58098 -7.45445,6.80618 -16.11016,7.03323 -2.9255,0.0767 -6.21669,-0.0405 -7.31375,-0.26046 z m 9.29251,-32.46524 c 2.47662,-1.269944 3.5622,-3.260834 3.56128,-6.53114 -0.001,-4.732015 -2.22807,-7.179686 -6.76377,-7.434849 -3.21028,-0.180599 -5.07334,0.703691 -6.53567,3.102116 -1.16629,1.912858 -1.20493,6.16474 -0.0756,8.322055 0.96305,1.839713 3.98033,3.539148 6.28363,3.539148 0.87186,0 2.46043,-0.448799 3.53016,-0.99733 z M 134.57652,97.544818 c -4.9666,-0.904379 -9.76605,-4.24146 -11.99799,-8.342275 -4.08827,-7.51151 -3.07868,-17.27851 2.34688,-22.704064 4.56102,-4.561022 12.54218,-5.971986 18.87327,-3.336547 2.1264,0.885155 5.28061,3.876721 6.42764,6.096208 1.03531,2.003285 2.16234,6.612125 2.17128,8.879114 l 0.007,1.662218 h -11.7735 -11.7735 l 0.30921,2.105476 c 0.90547,6.165723 4.46414,9.738506 10.15503,10.195315 3.62777,0.291202 6.52608,-0.444606 11.42217,-2.899812 0.18373,-0.09213 -0.2364,1.395208 -0.93362,3.305207 l -1.2677,3.472731 -2.28421,0.773441 c -2.711,0.917943 -8.7456,1.327597 -11.68151,0.792988 z m 9.4906,-24.615845 c -0.33221,-3.230193 -3.56506,-5.98469 -7.02236,-5.983294 -3.28317,0.0013 -6.87847,2.922851 -7.51528,6.106882 l -0.28996,1.449772 7.48218,-0.121793 7.48218,-0.121793 z M 372.925,97.501871 c -1.46275,-0.229585 -3.65139,-0.666288 -4.86365,-0.970456 l -2.2041,-0.553026 -1.19677,-3.767693 c -0.65822,-2.072231 -1.21224,-3.999597 -1.23114,-4.283038 -0.0189,-0.283441 1.01281,0.06583 2.29272,0.776162 5.05929,2.807827 11.70143,3.881398 15.13584,2.446412 1.95092,-0.815147 2.75365,-2.894053 1.81692,-4.705485 -0.67541,-1.306099 -2.53459,-2.343837 -8.73037,-4.873044 -6.48564,-2.647525 -8.77646,-5.25054 -8.77646,-9.972504 0,-2.589585 0.98986,-5.156233 2.50156,-6.486411 0.45258,-0.398231 1.72047,-1.196095 2.81753,-1.773032 1.84378,-0.969623 2.49763,-1.048175 8.64353,-1.038396 4.04031,0.0064 7.38797,0.230512 8.53272,0.571158 l 1.88385,0.560578 v 3.354774 c 0,3.017979 -0.0779,3.323555 -0.7757,3.04381 -4.17787,-1.674824 -10.10322,-2.428343 -12.60439,-1.602883 -0.94615,0.312257 -1.76622,0.96733 -2.08394,1.664638 -0.75762,1.662806 0.33755,3.086842 3.4228,4.450607 10.09572,4.462588 11.70349,5.530167 13.21427,8.774466 2.54812,5.471883 -0.10823,11.69046 -5.85717,13.71177 -2.6335,0.92593 -8.2901,1.24415 -11.93805,0.671593 z M 70.929713,96.228267 c 1.764081,-1.387624 3.380204,-4.93535 11.673791,-25.626399 l 7.86194,-19.614166 h 4.769706 c 3.402289,0 4.83312,0.158846 4.9909,0.554073 2.0406,5.111457 15.64297,36.773485 16.6785,38.822273 0.78048,1.544155 2.23099,3.688416 3.22338,4.765023 l 1.80432,1.957463 h -8.31717 -8.31717 l 1.16859,-1.168588 c 1.66364,-1.66364 1.5102,-2.989496 -1.15851,-10.010725 l -2.32711,-6.122467 -8.632704,0.118174 -8.632706,0.118173 -2.102339,5.540725 c -2.447638,6.450765 -2.664497,8.602521 -1.043283,10.351838 l 1.08698,1.17287 h -6.909111 -6.909111 z m 29.613247,-22.1497 c 0,-0.561169 -5.769031,-15.261291 -6.143937,-15.655423 -0.264274,-0.277826 -6.288863,14.824016 -6.273102,15.724788 0.0084,0.480101 12.417039,0.410782 12.417039,-0.06936 z m 56.73617,21.352314 c 0.83389,-1.555866 0.88737,-2.497989 0.88737,-15.631409 0,-13.133422 -0.0535,-14.075543 -0.88737,-15.631409 l -0.88738,-1.655653 h 4.8767 4.8767 l 0.0232,2.770363 c 0.023,2.743241 0.0306,2.759514 0.77008,1.662217 2.23919,-3.322508 5.27518,-4.987008 8.72708,-4.784679 l 2.22593,0.13047 v 3.620863 c 0,1.991475 -0.10002,3.720475 -0.22228,3.842222 -0.12225,0.121748 -1.16561,0.0055 -2.31856,-0.258336 -2.84667,-0.651413 -5.26118,0.08928 -6.77933,2.079684 -1.6041,2.103074 -2.1143,6.068849 -1.91257,14.866284 0.15114,6.591659 0.26815,7.513077 1.14222,8.994516 l 0.97384,1.65052 h -6.19153 -6.19152 z m 36.88777,1.32321 c 0.0937,-0.182844 0.65886,-1.329774 1.2559,-2.548734 l 1.08552,-2.21629 v -17.73032 c 0,-15.950284 -0.079,-17.928365 -0.78737,-19.702975 -0.43306,-1.08496 -1.11224,-2.331623 -1.50929,-2.770363 -0.69239,-0.765085 -0.41851,-0.797707 6.69748,-0.797707 4.08066,0 7.34272,0.1496 7.24901,0.332444 -0.0937,0.182843 -0.65836,1.329774 -1.25479,2.548733 l -1.08442,2.21629 -0.14828,17.215842 -0.14828,17.215841 7.01768,-0.155637 c 6.0676,-0.134568 7.30272,-0.286579 9.12315,-1.122817 1.15801,-0.531945 2.10548,-0.829287 2.10548,-0.660751 0,0.168531 -0.61485,2.151978 -1.36633,4.407656 l -1.36633,4.101231 h -13.51975 c -7.43587,0 -13.44309,-0.1496 -13.34938,-0.332443 z m 34.60339,-1.329774 c 0.95836,-1.621585 0.98238,-2.003549 0.98238,-15.624845 0,-12.461825 -0.0834,-14.115106 -0.7757,-15.381203 -0.42664,-0.780217 -0.7757,-1.534748 -0.7757,-1.676735 0,-0.141987 2.24399,-0.201759 4.98665,-0.132827 l 4.98665,0.125332 0.22163,15.957288 c 0.20313,14.625626 0.29062,16.059011 1.04831,17.176248 l 0.82668,1.218959 h -6.24164 -6.24164 z m 17.1613,1.53431 c 0,-0.07035 0.39893,-0.910385 0.88651,-1.866754 0.82975,-1.627493 0.88652,-2.613972 0.88652,-15.403783 0,-12.836011 -0.0543,-13.771415 -0.89553,-15.420307 l -0.89552,-1.755373 h 4.88485 4.88484 v 2.721954 2.721955 l 1.75633,-1.995299 c 2.6628,-3.025098 5.46303,-4.103562 10.6549,-4.103562 3.47193,0 4.6187,0.183458 6.53435,1.045354 2.73321,1.22974 5.15991,3.741728 5.90861,6.11628 0.32712,1.037495 0.63906,6.329973 0.8052,13.661557 0.24189,10.674517 0.36055,12.099707 1.09789,13.186926 l 0.82668,1.218959 h -6.24164 -6.24165 l 0.98239,-1.662217 c 0.94087,-1.591988 0.98238,-2.111686 0.98238,-12.30041 0,-10.391079 -0.0242,-10.677053 -1.04013,-12.311156 -1.35251,-2.175413 -3.26367,-3.153325 -6.11052,-3.126667 -4.56099,0.04271 -8.15286,3.333266 -9.06247,8.302243 -0.26965,1.473019 -0.41522,6.057187 -0.33316,10.491526 0.13661,7.382351 0.209,7.960936 1.15633,9.241056 l 1.0106,1.365625 h -6.21888 c -3.42039,0 -6.21888,-0.05756 -6.21888,-0.127907 z M 231.47611,59.442132 c -1.50697,-0.647027 -2.83159,-2.670385 -2.83159,-4.325269 0,-5.306308 6.58341,-7.523381 9.33251,-3.142879 1.22354,1.949629 0.95493,4.885054 -0.58824,6.428216 -1.21025,1.210257 -4.26474,1.747485 -5.91268,1.039932 z"
       style="fill:#008f7e"
       id="path1351" />
  </g>
</svg>

<?xml version="1.0" encoding="UTF-8" standalone="no"?>
<!-- Created with Inkscape (http://www.inkscape.org/) -->
<svg
   xmlns:svg="http://www.w3.org/2000/svg"
   xmlns="http://www.w3.org/2000/svg"
   version="1.0"
   viewBox="0 0 313 69"
   id="svg1340">
  <defs
     id="defs1343" />
  <g
     transform="matrix(0.715993,0,0,0.715993,-43.7539,-20.18618)"
     id="g1362">
    <path
       d="M 422.97681,107.17065 C 423.31462,106.37833 423.95047,104.58495 424.38983,103.18537 C 425.07742,100.99502 425.56975,100.33147 427.92536,98.420262 C 431.61029,95.430509 436.54414,89.724941 439.41807,85.129946 C 440.63493,83.184363 440.63826,83.16103 439.59285,83.902277 C 433.72278,88.064465 426.47514,91.645573 421.99401,92.597979 C 419.51216,93.125465 413.57603,93.27514 412.43921,92.838899 C 412.06897,92.696826 411.8535,92.34776 411.96039,92.063197 C 412.06727,91.778635 411.57011,91.214115 410.8556,90.808715 C 408.90501,89.701989 408.00967,87.628623 408.29375,84.876181 C 408.73157,80.634126 411.95604,76.030928 415.52535,74.552468 C 416.64768,74.087583 416.8582,73.785799 416.68654,72.887822 C 416.34345,71.09309 417.81646,67.946913 419.61748,66.627669 C 420.50994,65.973947 421.57431,65.034543 421.98275,64.540103 C 422.57702,63.820713 423.37651,63.608242 425.9848,63.476529 C 427.77749,63.386003 430.05939,63.531433 431.05568,63.799707 C 434.70402,64.782101 438.21355,68.606797 441.21778,74.87439 C 442.16561,76.851809 443.07841,78.469698 443.24622,78.469698 C 443.41403,78.469698 443.90386,77.546615 444.33473,76.418401 L 445.11813,74.367104 L 443.97035,73.531007 C 443.33908,73.071154 442.21092,71.741729 441.46334,70.576728 C 437.4132,64.26513 436.93724,55.664711 440.26967,49.007492 C 442.3235,44.904538 446.04866,40.65827 447.25765,41.041987 C 447.8229,41.221391 448.4745,40.998552 449.09832,40.412505 C 452.08524,37.606446 458.70284,37.419256 459.73599,40.111601 C 459.96192,40.700369 460.25376,40.659409 461.88283,39.810289 C 464.42417,38.485667 468.71422,38.219488 471.34277,39.223342 C 473.68962,40.119608 474.94852,41.58766 475.6046,44.193192 C 475.88247,45.296706 476.34786,46.111864 476.69999,46.111864 C 477.48008,46.111864 477.46927,46.652442 476.62433,49.897243 C 474.8618,56.665813 470.51432,61.068046 458.25217,68.500791 C 450.29373,73.324824 448.64702,74.601408 447.81542,76.591722 C 447.45443,77.455681 447.21329,78.216767 447.27955,78.283026 C 447.34581,78.349284 448.59509,77.501076 450.05573,76.398118 C 456.9926,71.159962 466.75563,65.256108 470.8755,63.808092 C 472.2814,63.313954 475.12792,62.690699 477.20108,62.42308 C 480.53719,61.992433 481.01667,62.019044 481.37234,62.65458 C 481.59336,63.049524 482.56501,63.585605 483.53157,63.845871 C 484.49812,64.106138 486.08725,65.078494 487.06295,66.006662 C 488.68789,67.552427 488.83697,67.887449 488.83697,69.9934 C 488.83697,72.683046 488.08352,74.697667 486.48641,76.278476 L 485.34151,77.411688 L 486.64598,79.997818 C 488.70011,84.070143 488.33505,87.455495 485.47615,90.846352 C 484.77277,91.680608 484.19401,92.676485 484.19002,93.059411 C 484.1797,94.049286 480.35707,95.993345 476.20412,97.120771 C 473.28616,97.912922 471.97114,98.035266 468.78001,97.811482 C 460.38036,97.222437 453.61944,93.333273 447.64086,85.651364 L 445.22982,82.553416 L 443.3789,85.801367 C 439.33006,92.906159 434.13347,99.240529 427.71316,104.89706 C 423.0734,108.98486 421.97943,109.51001 422.97681,107.17065 z "
       style="fill:#5fba45"
       id="path1353" />
    <path
       d="M 296.463,113.92693 C 288.64027,112.35826 284.73876,109.72755 284.19225,105.65301 C 283.68937,101.90375 286.29629,99.538079 290.84344,99.617324 C 292.26284,99.642058 293.52984,99.767983 293.65902,99.897153 C 293.78819,100.02633 293.57433,100.58822 293.18378,101.14582 C 291.53747,103.49626 292.81792,106.72465 296.01006,108.27168 C 298.77884,109.61355 305.05702,109.8972 308.67953,108.84411 C 312.15,107.83522 314.63658,105.43482 314.63658,103.09353 C 314.63658,99.307837 312.48359,98.185637 304.44164,97.779621 C 295.78279,97.342462 294.80562,97.160992 293.11441,95.676096 C 290.67539,93.534606 290.64444,90.102916 293.03672,87.061625 C 293.76823,86.131661 293.8516,85.799505 293.39197,85.646298 C 292.21483,85.253917 289.29094,82.268313 288.34676,80.494595 C 287.5788,79.051927 287.38702,77.9379 287.38775,74.923634 C 287.38851,71.706142 287.55971,70.832294 288.56005,68.939651 C 291.05838,64.212847 294.37756,62.429257 301.18834,62.153734 C 306.06391,61.956498 309.08774,62.614924 311.30074,64.355662 C 312.55545,65.342623 313.46161,65.006059 313.98439,63.358898 C 314.23803,62.559756 314.79512,62.51241 323.94443,62.51241 L 333.63581,62.51241 L 333.77705,75.291508 L 333.9183,88.070604 L 335.14925,89.683536 C 338.3939,93.935058 345.38679,92.337189 348.29998,86.678601 C 349.40865,84.52513 349.43233,84.28417 349.43233,75.157986 C 349.43233,66.329153 349.38044,65.749053 348.44995,64.174628 L 347.46757,62.51241 L 352.77172,62.51241 L 358.07586,62.51241 L 358.07586,78.143819 C 358.07586,92.933428 358.12365,93.86439 358.96324,95.430881 L 359.85062,97.086534 L 354.97391,97.086534 L 350.09722,97.086534 L 350.09722,94.604138 L 350.09722,92.121739 L 347.68506,94.326309 C 345.78336,96.064359 344.65875,96.697127 342.37061,97.316496 C 337.34583,98.676642 331.02263,97.41958 328.23157,94.505633 C 325.80502,91.972241 325.5467,90.633017 325.29022,79.256357 C 325.06507,69.269029 325.00546,68.692326 324.10546,67.793611 C 322.70398,66.394136 319.69263,66.184457 317.14976,67.309289 L 315.09738,68.217152 L 315.96539,70.129804 C 317.23858,72.93528 317.16275,77.574264 315.79645,80.464359 C 313.46041,85.405737 309.50556,87.297655 301.11721,87.486599 C 298.1318,87.553841 298.0144,87.597923 298.0144,88.651543 C 298.0144,90.216802 299.63033,90.866064 303.55513,90.877753 C 308.71564,90.893116 313.96671,91.633813 315.89722,92.618684 C 320.91787,95.180033 322.70269,101.68257 319.88691,107.15416 C 317.52946,111.73514 312.43246,113.96034 303.77675,114.18739 C 300.85125,114.26413 297.56006,114.14693 296.463,113.92693 z M 305.75551,81.46169 C 308.23213,80.191746 309.31771,78.200856 309.31679,74.93055 C 309.31546,70.198535 307.08872,67.750864 302.55302,67.495701 C 299.34274,67.315102 297.47968,68.199392 296.01735,70.597817 C 294.85106,72.510675 294.81242,76.762557 295.94172,78.919872 C 296.90477,80.759585 299.92205,82.45902 302.22535,82.45902 C 303.09721,82.45902 304.68578,82.010221 305.75551,81.46169 z M 134.57652,97.544818 C 129.60992,96.640439 124.81047,93.303358 122.57853,89.202543 C 118.49026,81.691033 119.49985,71.924033 124.92541,66.498479 C 129.48643,61.937457 137.46759,60.526493 143.79868,63.161932 C 145.92508,64.047087 149.07929,67.038653 150.22632,69.25814 C 151.26163,71.261425 152.38866,75.870265 152.3976,78.137254 L 152.40415,79.799472 L 140.63065,79.799472 L 128.85715,79.799472 L 129.16636,81.904948 C 130.07183,88.070671 133.6305,91.643454 139.32139,92.100263 C 142.94916,92.391465 145.84747,91.655657 150.74356,89.200451 C 150.92729,89.108316 150.50716,90.595659 149.80994,92.505658 L 148.54224,95.978389 L 146.25803,96.75183 C 143.54703,97.669773 137.51243,98.079427 134.57652,97.544818 z M 144.06712,72.928973 C 143.73491,69.69878 140.50206,66.944283 137.04476,66.945679 C 133.76159,66.947005 130.16629,69.86853 129.52948,73.052561 L 129.23952,74.502333 L 136.7217,74.38054 L 144.20388,74.258747 L 144.06712,72.928973 z M 372.925,97.501871 C 371.46225,97.272286 369.27361,96.835583 368.06135,96.531415 L 365.85725,95.978389 L 364.66048,92.210696 C 364.00226,90.138465 363.44824,88.211099 363.42934,87.927658 C 363.41043,87.644217 364.44215,87.993491 365.72206,88.70382 C 370.78135,91.511647 377.42349,92.585218 380.8579,91.150232 C 382.80882,90.335085 383.61155,88.256179 382.67482,86.444747 C 381.99941,85.138648 380.14023,84.10091 373.94445,81.571703 C 367.45881,78.924178 365.16799,76.321163 365.16799,71.599199 C 365.16799,69.009614 366.15785,66.442966 367.66955,65.112788 C 368.12213,64.714557 369.39002,63.916693 370.48708,63.339756 C 372.33086,62.370133 372.98471,62.291581 379.13061,62.30136 C 383.17092,62.307789 386.51858,62.531872 387.66333,62.872518 L 389.54718,63.433096 L 389.54718,66.78787 C 389.54718,69.805849 389.4693,70.111425 388.77148,69.83168 C 384.59361,68.156856 378.66826,67.403337 376.16709,68.228797 C 375.22094,68.541054 374.40087,69.196127 374.08315,69.893435 C 373.32553,71.556241 374.4207,72.980277 377.50595,74.344042 C 387.60167,78.80663 389.20944,79.874209 390.72022,83.118508 C 393.26834,88.590391 390.61199,94.808968 384.86305,96.830278 C 382.22955,97.756208 376.57295,98.074428 372.925,97.501871 z M 70.929713,96.228267 C 72.693794,94.840643 74.309917,91.292917 82.603504,70.601868 L 90.465444,50.987702 L 95.23515,50.987702 C 98.637439,50.987702 100.06827,51.146548 100.22605,51.541775 C 102.26665,56.653232 115.86902,88.31526 116.90455,90.364048 C 117.68503,91.908203 119.13554,94.052464 120.12793,95.129071 L 121.93225,97.086534 L 113.61508,97.086534 L 105.29791,97.086534 L 106.4665,95.917946 C 108.13014,94.254306 107.9767,92.92845 105.30799,85.907221 L 102.98088,79.784754 L 94.348176,79.902928 L 85.71547,80.021101 L 83.613131,85.561826 C 81.165493,92.012591 80.948634,94.164347 82.569848,95.913664 L 83.656828,97.086534 L 76.747717,97.086534 L 69.838606,97.086534 L 70.929713,96.228267 z M 100.54296,74.078567 C 100.54296,73.517398 94.773929,58.817276 94.399023,58.423144 C 94.134749,58.145318 88.11016,73.24716 88.125921,74.147932 C 88.134322,74.628033 100.54296,74.558714 100.54296,74.078567 z M 157.27913,95.430881 C 158.11302,93.875015 158.1665,92.932892 158.1665,79.799472 C 158.1665,66.66605 158.11302,65.723929 157.27913,64.168063 L 156.39175,62.51241 L 161.26845,62.51241 L 166.14515,62.51241 L 166.16839,65.282773 C 166.19142,68.026014 166.19896,68.042287 166.93847,66.94499 C 169.17766,63.622482 172.21365,61.957982 175.66555,62.160311 L 177.89148,62.290781 L 177.89148,65.911644 C 177.89148,67.903119 177.79146,69.632119 177.6692,69.753866 C 177.54695,69.875614 176.50359,69.759363 175.35064,69.49553 C 172.50397,68.844117 170.08946,69.584809 168.57131,71.575214 C 166.96721,73.678288 166.45701,77.644063 166.65874,86.441498 C 166.80988,93.033157 166.92689,93.954575 167.80096,95.436014 L 168.7748,97.086534 L 162.58327,97.086534 L 156.39175,97.086534 L 157.27913,95.430881 z M 194.1669,96.754091 C 194.26061,96.571247 194.82576,95.424317 195.4228,94.205357 L 196.50832,91.989067 L 196.50832,74.258747 C 196.50832,58.308463 196.42927,56.330382 195.72095,54.555772 C 195.28789,53.470812 194.60871,52.224149 194.21166,51.785409 C 193.51927,51.020324 193.79315,50.987702 200.90914,50.987702 C 204.9898,50.987702 208.25186,51.137302 208.15815,51.320146 C 208.06445,51.502989 207.49979,52.64992 206.90336,53.868879 L 205.81894,56.085169 L 205.67066,73.301011 L 205.52238,90.516852 L 212.54006,90.361215 C 218.60766,90.226647 219.84278,90.074636 221.66321,89.238398 C 222.82122,88.706453 223.76869,88.409111 223.76869,88.577647 C 223.76869,88.746178 223.15384,90.729625 222.40236,92.985303 L 221.03603,97.086534 L 207.51628,97.086534 C 200.08041,97.086534 194.07319,96.936934 194.1669,96.754091 z M 228.77029,95.424317 C 229.72865,93.802732 229.75267,93.420768 229.75267,79.799472 C 229.75267,67.337647 229.66929,65.684366 228.97697,64.418269 C 228.55033,63.638052 228.20127,62.883521 228.20127,62.741534 C 228.20127,62.599547 230.44526,62.539775 233.18792,62.608707 L 238.17457,62.734039 L 238.3962,78.691327 C 238.59933,93.316953 238.68682,94.750338 239.44451,95.867575 L 240.27119,97.086534 L 234.02955,97.086534 L 227.78791,97.086534 L 228.77029,95.424317 z M 245.93159,96.958627 C 245.93159,96.888278 246.33052,96.048242 246.8181,95.091873 C 247.64785,93.46438 247.70462,92.477901 247.70462,79.68809 C 247.70462,66.852079 247.6503,65.916675 246.80909,64.267783 L 245.91357,62.51241 L 250.79842,62.51241 L 255.68326,62.51241 L 255.68326,65.234364 L 255.68326,67.956319 L 257.43959,65.96102 C 260.10239,62.935922 262.90262,61.857458 268.09449,61.857458 C 271.56642,61.857458 272.71319,62.040916 274.62884,62.902812 C 277.36205,64.132552 279.78875,66.64454 280.53745,69.019092 C 280.86457,70.056587 281.17651,75.349065 281.34265,82.680649 C 281.58454,93.355166 281.7032,94.780356 282.44054,95.867575 L 283.26722,97.086534 L 277.02558,97.086534 L 270.78393,97.086534 L 271.76632,95.424317 C 272.70719,93.832329 272.7487,93.312631 272.7487,83.123907 C 272.7487,72.732828 272.72453,72.446854 271.70857,70.812751 C 270.35606,68.637338 268.4449,67.659426 265.59805,67.686084 C 261.03706,67.728793 257.44519,71.01935 256.53558,75.988327 C 256.26593,77.461346 256.12036,82.045514 256.20242,86.479853 C 256.33903,93.862204 256.41142,94.440789 257.35875,95.720909 L 258.36935,97.086534 L 252.15047,97.086534 C 248.73008,97.086534 245.93159,97.028977 245.93159,96.958627 z M 231.47611,59.442132 C 229.96914,58.795105 228.64452,56.771747 228.64452,55.116863 C 228.64452,49.810555 235.22793,47.593482 237.97703,51.973984 C 239.20057,53.923613 238.93196,56.859038 237.38879,58.4022 C 236.17854,59.612457 233.12405,60.149685 231.47611,59.442132 z "
       style="fill:#008f7e"
       id="path1351" />
  </g>
</svg>
